Numix-Light/16/status/indicator-keyboard-Sw.svg

<?xml version="1.0" encoding="UTF-8" standalone="no"?>
<svg
   xmlns:dc="http://purl.org/dc/elements/1.1/"
   xmlns:cc="http://creativecommons.org/ns#"
   xmlns:rdf="http://www.w3.org/1999/02/22-rdf-syntax-ns#"
   xmlns:svg="http://www.w3.org/2000/svg"
   xmlns="http://www.w3.org/2000/svg"
   xmlns:sodipodi="http://sodipodi.sourceforge.net/DTD/sodipodi-0.dtd"
   xmlns:inkscape="http://www.inkscape.org/namespaces/inkscape"
   viewBox="0 0 16 16"
   id="svg2"
   version="1.1"
   inkscape:version="0.91 r13725"
   sodipodi:docname="indicator-keyboard-Sw.svg">
  <metadata
     id="metadata13">
    <rdf:RDF>
      <cc:Work
         rdf:about="">
        <dc:format>image/svg+xml</dc:format>
        <dc:type
           rdf:resource="http://purl.org/dc/dcmitype/StillImage" />
      </cc:Work>
    </rdf:RDF>
  </metadata>
  <defs
     id="defs11" />
  <sodipodi:namedview
     pagecolor="#ffffff"
     bordercolor="#666666"
     borderopacity="1"
     objecttolerance="10"
     gridtolerance="10"
     guidetolerance="10"
     inkscape:pageopacity="0"
     inkscape:pageshadow="2"
     inkscape:window-width="640"
     inkscape:window-height="480"
     id="namedview9"
     showgrid="false"
     inkscape:zoom="14.75"
     inkscape:cx="8"
     inkscape:cy="8"
     inkscape:window-x="65"
     inkscape:window-y="24"
     inkscape:window-maximized="0"
     inkscape:current-layer="svg2" />
  <path
     style="fill:#353535;fill-opacity:1"
     d="M 1.5996094 0 C 0.71320937 2.9605947e-16 0 0.71320937 0 1.5996094 L 0 14.400391 C 2.9605947e-16 15.286791 0.71320937 16 1.5996094 16 L 14.400391 16 C 15.286791 16 16 15.286791 16 14.400391 L 16 1.5996094 C 16 0.71320937 15.286791 0 14.400391 0 L 1.5996094 0 z M 4.6171875 4.7460938 C 4.7851875 4.7460938 4.9512813 4.7592031 5.1132812 4.7832031 C 5.2752812 4.8072031 5.4245 4.8388594 5.5625 4.8808594 C 5.7065 4.9168594 5.8352188 4.9598125 5.9492188 5.0078125 C 6.0692187 5.0558125 6.1680938 5.1061563 6.2460938 5.1601562 L 6.03125 5.6738281 C 5.85725 5.5538281 5.6445781 5.4567656 5.3925781 5.3847656 C 5.1465781 5.3127656 4.8797969 5.2773438 4.5917969 5.2773438 C 4.3937969 5.2773438 4.2090156 5.2978437 4.0410156 5.3398438 C 3.8790156 5.3758437 3.7391406 5.4392969 3.6191406 5.5292969 C 3.4991406 5.6132969 3.4020781 5.7215156 3.3300781 5.8535156 C 3.2640781 5.9855156 3.2324219 6.1440781 3.2324219 6.3300781 C 3.2324219 6.5220781 3.2678437 6.6844062 3.3398438 6.8164062 C 3.4118438 6.9484063 3.5107188 7.0622031 3.6367188 7.1582031 C 3.7687187 7.2542031 3.9217031 7.3419219 4.0957031 7.4199219 C 4.2697031 7.4979219 4.4581094 7.5781094 4.6621094 7.6621094 C 4.9081094 7.7641094 5.1394687 7.86675 5.3554688 7.96875 C 5.5774688 8.07075 5.7696406 8.190125 5.9316406 8.328125 C 6.0936406 8.466125 6.2223594 8.6340313 6.3183594 8.8320312 C 6.4143594 9.0300313 6.4628906 9.2725469 6.4628906 9.5605469 C 6.4628906 10.124547 6.2651406 10.548078 5.8691406 10.830078 C 5.4791406 11.112078 4.9473906 11.253906 4.2753906 11.253906 C 4.0353906 11.253906 3.8171406 11.238984 3.6191406 11.208984 C 3.4211406 11.178984 3.2438906 11.141609 3.0878906 11.099609 C 2.9318906 11.051609 2.7994062 11.005031 2.6914062 10.957031 C 2.5834062 10.909031 2.4994531 10.866078 2.4394531 10.830078 L 2.6386719 10.298828 C 2.6986719 10.334828 2.7788594 10.377781 2.8808594 10.425781 C 2.9828594 10.473781 3.1022344 10.522312 3.2402344 10.570312 C 3.3782344 10.612312 3.5349844 10.647734 3.7089844 10.677734 C 3.8829844 10.707734 4.0751562 10.722656 4.2851562 10.722656 C 4.7711563 10.722656 5.1479687 10.634938 5.4179688 10.460938 C 5.6879688 10.280937 5.8242187 9.9936564 5.8242188 9.5976562 C 5.8242188 9.3696562 5.7794531 9.18125 5.6894531 9.03125 C 5.6054531 8.87525 5.4916562 8.7445781 5.3476562 8.6425781 C 5.2036562 8.5345781 5.0375625 8.4450469 4.8515625 8.3730469 C 4.6655625 8.2950469 4.4715781 8.2148594 4.2675781 8.1308594 C 4.0095781 8.0288594 3.7782187 7.9244062 3.5742188 7.8164062 C 3.3702188 7.7084063 3.1967344 7.5870781 3.0527344 7.4550781 C 2.9087344 7.3170781 2.79675 7.1622813 2.71875 6.9882812 C 2.64675 6.8142812 2.6113281 6.609 2.6113281 6.375 C 2.6113281 5.841 2.7885781 5.4361562 3.1425781 5.1601562 C 3.4965781 4.8841563 3.9871875 4.7460938 4.6171875 4.7460938 z M 7 6.4648438 L 7.6191406 6.4648438 C 7.6851406 6.7828437 7.7672813 7.128 7.8632812 7.5 C 7.9652812 7.866 8.0735 8.2316563 8.1875 8.5976562 C 8.3015 8.9576563 8.4152969 9.301 8.5292969 9.625 C 8.6492969 9.9490001 8.7593281 10.225125 8.8613281 10.453125 C 8.9753281 10.153125 9.089125 9.8322345 9.203125 9.4902344 C 9.323125 9.1482344 9.4351094 8.8030781 9.5371094 8.4550781 C 9.6391094 8.1070781 9.7342188 7.7637344 9.8242188 7.4277344 C 9.9142187 7.0857344 9.992594 6.7648437 10.058594 6.4648438 L 10.5625 6.4648438 C 10.6165 6.7648437 10.685531 7.0857344 10.769531 7.4277344 C 10.859531 7.7637344 10.956594 8.1088906 11.058594 8.4628906 C 11.166594 8.8108906 11.276625 9.1560469 11.390625 9.4980469 C 11.510625 9.840047 11.631953 10.160937 11.751953 10.460938 C 11.853953 10.232937 11.960219 9.9568126 12.074219 9.6328125 C 12.188219 9.3028125 12.303969 8.9576562 12.417969 8.5976562 C 12.531969 8.2316562 12.636422 7.866 12.732422 7.5 C 12.834422 7.128 12.918375 6.7828438 12.984375 6.4648438 L 13.560547 6.4648438 C 13.344547 7.3768437 13.107609 8.2107969 12.849609 8.9667969 C 12.597609 9.722797 12.317719 10.441141 12.011719 11.119141 L 11.462891 11.119141 C 11.372891 10.909141 11.277781 10.674016 11.175781 10.416016 C 11.079781 10.152016 10.977141 9.8740783 10.869141 9.5800781 C 10.767141 9.2800781 10.6645 8.9665781 10.5625 8.6425781 C 10.4665 8.3125781 10.373203 7.9767656 10.283203 7.6347656 C 10.193203 7.9767656 10.098093 8.3125781 9.9960938 8.6425781 C 9.9000937 8.9665781 9.7974531 9.2800781 9.6894531 9.5800781 C 9.5874531 9.8740783 9.4867656 10.152016 9.3847656 10.416016 C 9.2887656 10.674016 9.1954687 10.909141 9.1054688 11.119141 L 8.546875 11.119141 C 8.240875 10.441141 7.9591719 9.722797 7.7011719 8.9667969 C 7.4491719 8.2107969 7.216 7.3768437 7 6.4648438 z "
     id="path4" />
</svg>

<svg xmlns="http://www.w3.org/2000/svg" viewBox="0 0 16 16">
 <path d="m 1.6 0 c -0.886 0 -1.6 0.713 -1.6 1.6 l 0 12.801 c 0 0.886 0.713 1.6 1.6 1.6 l 12.801 0 c 0.886 0 1.6 -0.713 1.6 -1.6 l 0 -12.801 c 0 -0.886 -0.713 -1.6 -1.6 -1.6 l -12.801 0 z m 3.02 4.746 c 0.168 0 0.334 0.013 0.496 0.037 c 0.162 0.024 0.311 0.056 0.449 0.098 c 0.144 0.036 0.273 0.079 0.387 0.127 c 0.12 0.048 0.219 0.098 0.297 0.152 l -0.215 0.514 c -0.174 -0.12 -0.387 -0.217 -0.639 -0.289 c -0.246 -0.072 -0.513 -0.107 -0.801 -0.107 c -0.198 0 -0.383 0.02 -0.551 0.063 c -0.162 0.036 -0.302 0.099 -0.422 0.189 c -0.12 0.084 -0.217 0.192 -0.289 0.324 c -0.066 0.132 -0.098 0.291 -0.098 0.477 c 0 0.192 0.035 0.354 0.107 0.486 c 0.072 0.132 0.171 0.246 0.297 0.342 c 0.132 0.096 0.285 0.184 0.459 0.262 c 0.174 0.078 0.362 0.158 0.566 0.242 c 0.246 0.102 0.477 0.205 0.693 0.307 c 0.222 0.102 0.414 0.221 0.576 0.359 c 0.162 0.138 0.291 0.306 0.387 0.504 c 0.096 0.198 0.145 0.441 0.145 0.729 c 0 0.564 -0.198 0.988 -0.594 1.27 c -0.39 0.282 -0.922 0.424 -1.594 0.424 c -0.24 0 -0.458 -0.015 -0.656 -0.045 c -0.198 -0.03 -0.375 -0.067 -0.531 -0.109 c -0.156 -0.048 -0.288 -0.095 -0.396 -0.143 c -0.108 -0.048 -0.192 -0.091 -0.252 -0.127 l 0.199 -0.531 c 0.06 0.036 0.14 0.079 0.242 0.127 c 0.102 0.048 0.221 0.097 0.359 0.145 c 0.138 0.042 0.295 0.077 0.469 0.107 c 0.174 0.03 0.366 0.045 0.576 0.045 c 0.486 0 0.863 -0.088 1.133 -0.262 c 0.27 -0.18 0.406 -0.467 0.406 -0.863 c 0 -0.228 -0.045 -0.416 -0.135 -0.566 c -0.084 -0.156 -0.198 -0.287 -0.342 -0.389 c -0.144 -0.108 -0.31 -0.198 -0.496 -0.27 c -0.186 -0.078 -0.38 -0.158 -0.584 -0.242 c -0.258 -0.102 -0.489 -0.206 -0.693 -0.314 c -0.204 -0.108 -0.377 -0.229 -0.521 -0.361 c -0.144 -0.138 -0.256 -0.293 -0.334 -0.467 c -0.072 -0.174 -0.107 -0.379 -0.107 -0.613 c 0 -0.534 0.177 -0.939 0.531 -1.215 c 0.354 -0.276 0.845 -0.414 1.475 -0.414 z m 2.383 1.719 l 0.619 0 c 0.066 0.318 0.148 0.663 0.244 1.035 c 0.102 0.366 0.21 0.732 0.324 1.098 c 0.114 0.36 0.228 0.703 0.342 1.027 c 0.12 0.324 0.23 0.6 0.332 0.828 c 0.114 -0.3 0.228 -0.621 0.342 -0.963 c 0.12 -0.342 0.232 -0.687 0.334 -1.035 c 0.102 -0.348 0.197 -0.691 0.287 -1.027 c 0.09 -0.342 0.168 -0.663 0.234 -0.963 l 0.504 0 c 0.054 0.3 0.123 0.621 0.207 0.963 c 0.09 0.336 0.187 0.681 0.289 1.035 c 0.108 0.348 0.218 0.693 0.332 1.035 c 0.12 0.342 0.241 0.663 0.361 0.963 c 0.102 -0.228 0.208 -0.504 0.322 -0.828 c 0.114 -0.33 0.23 -0.675 0.344 -1.035 c 0.114 -0.366 0.218 -0.732 0.314 -1.098 c 0.102 -0.372 0.186 -0.717 0.252 -1.035 l 0.576 0 c -0.216 0.912 -0.453 1.746 -0.711 2.502 c -0.252 0.756 -0.532 1.474 -0.838 2.152 l -0.549 0 c -0.09 -0.21 -0.185 -0.445 -0.287 -0.703 c -0.096 -0.264 -0.199 -0.542 -0.307 -0.836 c -0.102 -0.3 -0.205 -0.614 -0.307 -0.938 c -0.096 -0.33 -0.189 -0.666 -0.279 -1.01 c -0.09 0.342 -0.185 0.678 -0.287 1.01 c -0.096 0.324 -0.199 0.638 -0.307 0.938 c -0.102 0.294 -0.203 0.572 -0.305 0.836 c -0.096 0.258 -0.189 0.493 -0.279 0.703 l -0.559 0 c -0.306 -0.678 -0.588 -1.396 -0.846 -2.152 c -0.252 -0.756 -0.485 -1.59 -0.701 -2.502 z" style="fill:#353535;fill-opacity:1"/>
</svg>
